src/ios-medical.svg

<?xml version="1.0" encoding="utf-8"?>
<!-- Generated by IcoMoon.io -->
<!DOCTYPE svg PUBLIC "-//W3C//DTD SVG 1.1//EN" "http://www.w3.org/Graphics/SVG/1.1/DTD/svg11.dtd">
<svg version="1.1" xmlns="http://www.w3.org/2000/svg" xmlns:xlink="http://www.w3.org/1999/xlink" width="512" height="512" viewBox="0 0 512 512">
<path fill="#000000" d="M438 187.713l-31.927-55.426-118.073 68.287v-136.574h-64v136.574l-118.073-68.287-31.938 55.426 118.103 68.287-118.094 68.287 31.928 55.426 118.074-68.287v136.574h64v-136.574l118.072 68.287 31.939-55.426-118.103-68.287 118.092-68.287z"></path>
</svg>

<?xml version="1.0" encoding="utf-8"?>
<!-- Generator: Adobe Illustrator 16.2.1, SVG Export Plug-In . SVG Version: 6.00 Build 0)  -->
<!DOCTYPE svg PUBLIC "-//W3C//DTD SVG 1.1//EN" "http://www.w3.org/Graphics/SVG/1.1/DTD/svg11.dtd">
<svg version="1.1" id="Layer_1" xmlns="http://www.w3.org/2000/svg" xmlns:xlink="http://www.w3.org/1999/xlink" x="0px" y="0px"
	 width="512px" height="512px" viewBox="0 0 512 512" enable-background="new 0 0 512 512" xml:space="preserve">
<path d="M438,187.713l-31.927-55.426L288,200.574V64h-64v136.574l-118.073-68.287l-31.938,55.426L192.092,256L73.998,324.287
	l31.928,55.426L224,311.426V448h64V311.426l118.072,68.287l31.939-55.426L319.908,256L438,187.713z"/>
</svg>
